icon-themes/breeze_svg/cmd/32/backcolor.svg

<svg viewBox="0 0 32 32" xmlns="http://www.w3.org/2000/svg"><path d="m17.435547 2.9082031-13.435547 13.4355469v5.65625h5.65625l13.435547-13.4355469zm-.707031 2.1210938 4.242187 4.2421875-7.070312 7.0722656-4.244141-4.244141zm6.771484 5.9707031c-.68 2.34-2.347031 4.352844-3.082031 5.964844-.257.48-.417969 1.016656-.417969 1.597656 0 1.905 1.56 3.4375 3.5 3.4375s3.5-1.5325 3.5-3.4375c0-.58-.160969-1.118656-.417969-1.597656-.735-1.612-2.402031-3.624844-3.082031-5.964844zm-14.5507812 1.806641 4.2421872 4.24414-1.414062 1.414063-4.2421878-4.242188.7070313-.707031zm-2.1210938 2.123047 4.242187 4.242187-1.414062 1.414063-4.2421875-4.242188zm-2.828125 10.070312v2h24v-2z" fill="#4d4d4d"/></svg>

<svg xmlns="http://www.w3.org/2000/svg" viewBox="0 0 32 32">
 <path 
     style="fill:#4d4d4d" 
     d="M 17.435547 2.9082031 L 4 16.34375 L 4 22 L 9.65625 22 L 23.091797 8.5644531 L 17.435547 2.9082031 z M 16.728516 5.0292969 L 20.970703 9.2714844 L 13.900391 16.34375 L 9.65625 12.099609 L 16.728516 5.0292969 z M 23.5 11 C 22.82 13.34 21.152969 15.352844 20.417969 16.964844 C 20.160969 17.444844 20 17.9815 20 18.5625 C 20 20.4675 21.56 22 23.5 22 C 25.44 22 27 20.4675 27 18.5625 C 27 17.9825 26.839031 17.443844 26.582031 16.964844 C 25.847031 15.352844 24.18 13.34 23.5 11 z M 8.9492188 12.806641 L 13.191406 17.050781 L 11.777344 18.464844 L 7.5351562 14.222656 L 8.2421875 13.515625 L 8.9492188 12.806641 z M 6.828125 14.929688 L 11.070312 19.171875 L 9.65625 20.585938 L 5.4140625 16.34375 L 6.828125 14.929688 z M 4 25 L 4 27 L 28 27 L 28 25 L 4 25 z "
     />
</svg>
